; generated by PrusaSlicer 2.7.4+win64 on 2024-06-25 at 15:41:24 UTC


;
;
; 

; external perimeters extrusion width = 0.45mm
; perimeters extrusion width = 0.45mm
; infill extrusion width = 0.45mm
; solid infill extrusion width = 0.45mm
; top infill extrusion width = 0.40mm
; first layer extrusion width = 0.42mm

; external perimeters extrusion width = 0.45mm
; perimeters extrusion width = 0.45mm
; infill extrusion width = 0.45mm
; solid infill extrusion width = 0.45mm
; top infill extrusion width = 0.40mm
; first layer extrusion width = 0.42mm

; external perimeters extrusion width = 0.45mm
; perimeters extrusion width = 0.45mm
; infill extrusion width = 0.45mm
; solid infill extrusion width = 0.45mm
; top infill extrusion width = 0.40mm
; first layer extrusion width = 0.42mm

; external perimeters extrusion width = 0.45mm
; perimeters extrusion width = 0.45mm
; infill extrusion width = 0.45mm
; solid infill extrusion width = 0.45mm
; top infill extrusion width = 0.40mm
; first layer extrusion width = 0.42mm

; external perimeters extrusion width = 0.45mm
; perimeters extrusion width = 0.45mm
; infill extrusion width = 0.45mm
; solid infill extrusion width = 0.45mm
; top infill extrusion width = 0.40mm
; first layer extrusion width = 0.42mm

; external perimeters extrusion width = 0.45mm
; perimeters extrusion width = 0.45mm
; infill extrusion width = 0.45mm
; solid infill extrusion width = 0.45mm
; top infill extrusion width = 0.40mm
; first layer extrusion width = 0.42mm

; external perimeters extrusion width = 0.45mm
; perimeters extrusion width = 0.45mm
; infill extrusion width = 0.45mm
; solid infill extrusion width = 0.45mm
; top infill extrusion width = 0.40mm
; first layer extrusion width = 0.42mm

; external perimeters extrusion width = 0.45mm
; perimeters extrusion width = 0.45mm
; infill extrusion width = 0.45mm
; solid infill extrusion width = 0.45mm
; top infill extrusion width = 0.40mm
; first layer extrusion width = 0.42mm

; external perimeters extrusion width = 0.45mm
; perimeters extrusion width = 0.45mm
; infill extrusion width = 0.45mm
; solid infill extrusion width = 0.45mm
; top infill extrusion width = 0.40mm
; first layer extrusion width = 0.42mm

; external perimeters extrusion width = 0.45mm
; perimeters extrusion width = 0.45mm
; infill extrusion width = 0.45mm
; solid infill extrusion width = 0.45mm
; top infill extrusion width = 0.40mm
; first layer extrusion width = 0.42mm

M73 P0 R155
M73 Q0 S155
M201 X1000 Y1000 Z200 E5000 ; sets maximum accelerations, mm/sec^2
M203 X200 Y200 Z12 E120 ; sets maximum feedrates, mm / sec
M204 S1250 T1250 ; sets acceleration (S) and retract acceleration (R), mm/sec^2
M205 X8.00 Y8.00 Z0.40 E4.50 ; sets the jerk limits, mm/sec
M205 S0 T0 ; sets the minimum extruding and travel feed rate, mm/sec

; printing object body831910 id:0 copy 0
; stop printing object body831910 id:0 copy 0
; printing object body832298 id:1 copy 0
; stop printing object body832298 id:1 copy 0
; printing object body832472 id:2 copy 0
; stop printing object body832472 id:2 copy 0
; printing object body832813 id:4 copy 0
; stop printing object body832813 id:4 copy 0
; printing object body832619 id:3 copy 0
; stop printing object body832619 id:3 copy 0
; printing object body838974 id:7 copy 0
; stop printing object body838974 id:7 copy 0
; printing object body839269 id:9 copy 0
; stop printing object body839269 id:9 copy 0
; printing object body839117 id:8 copy 0
; stop printing object body839117 id:8 copy 0
; printing object body838672 id:5 copy 0
; stop printing object body838672 id:5 copy 0
; printing object body838823 id:6 copy 0
; stop printing object body838823 id:6 copy 0

;TYPE:Custom
M862.3 P "MK3" ; printer model check
M862.1 P0.4 ; nozzle diameter check
M115 U3.13.3 ; tell printer latest fw version
G90 ; use absolute coordinates
M83 ; extruder relative mode
M104 S215 ; set extruder temp
M140 S60 ; set bed temp
M190 S60 ; wait for bed temp
M109 S215 ; wait for extruder temp
G28 W ; home all without mesh bed level
G80 X4.77787 Y8.49281 W227.387 H178.596 ; mesh bed levelling

G1 Z0.2 F720
G1 Y-3 F1000 ; go outside print area
G92 E0
G1 X60 E9 F1000 ; intro line
G1 X100 E12.5 F1000 ; intro line

G92 E0
M221 S95

; Don't change E values below. Excessive value can damage the printer.
M907 E430 ; set extruder motor current
G21 ; set units to millimeters
G90 ; use absolute coordinates
M83 ; use relative distances for extrusion

M900 K0.05 ; Filament gcode LA 1.5
M900 K30 ; Filament gcode LA 1.0




M107
;LAYER_CHANGE
;Z:0.2
;HEIGHT:0.2
G1 E-.8 F2100
G1 Z.6 F720
G1 X6.404 Y8.875 F10800
G1 Z.2 F720
G1 E.8 F2100
M204 S800
;TYPE:Skirt/Brim
;WIDTH:0.42
G1 F1200
G1 X7.343 Y8.681 E.03006
G1 X35.937 Y8.683 E.89654
G1 X126.575 Y12.248 E2.84409
G1 X229.723 Y17.625 E3.23852
G1 X231.008 Y18.084 E.04278
M73 P0 R154
G1 X231.829 Y19.174 E.04279
G1 X231.976 Y19.998 E.02624
G1 X231.976 Y126.903 E3.35193
G1 X231.585 Y128.21 E.04277
G1 X230.872 Y128.91 E.03133
G1 X161.305 Y173.006 E2.5825
G1 X160.326 Y173.358 E.03262
G1 X51.627 Y186.882 E3.43446
G1 X11.334 Y186.9 E1.26336
G1 X10.027 Y186.508 E.04278
G1 X9.151 Y185.463 E.04275
G1 X8.961 Y184.665 E.02572
G1 X4.966 Y118.059 E2.09214
G1 X4.966 Y11.058 E3.35494
G1 X5.358 Y9.751 E.04278
M73 Q0 S154
G1 X6.358 Y8.914 E.04089
M204 S1000
;WIPE_START
G1 F8640
G1 X6.404 Y8.875 E-.01393
G1 X7.343 Y8.681 E-.2214
G1 X9.788 Y8.681 E-.56467
;WIPE_END
G1 Z.6 F720
; printing object body832472 id:2 copy 0
G1 X228.812 Y21.123 F10800
G1 Z.2 F720
G1 E.8 F2100
M204 S800
;TYPE:Perimeter
;WIDTH:0.419999
G1 F1200
G1 X228.812 Y33.176 E.37791
G1 X228.812 Y126.116 E2.91406
G1 X221.659 Y126.116 E.22428
G1 X211.294 Y27.504 E3.10894
G1 X228.756 Y21.143 E.5827
M204 S1000
G1 X228.756 Y21.143 F10800
G1 X229.189 Y20.584
M204 S800
;TYPE:External perimeter
G1 F1200
G1 X229.189 Y33.176 E.39481
G1 X229.189 Y126.493 E2.92588
G1 X221.319 Y126.493 E.24676
G1 X210.888 Y27.25 E3.12883
G1 X229.133 Y20.605 E.60882
M204 S1000
;WIPE_START
G1 F8640
G1 X229.189 Y20.584 E-.01381
G1 X229.189 Y23.989 E-.78619
;WIPE_END
G1 Z.6 F720
G1 X228.643 Y22.12 F10800
G1 Z.2 F720
G1 E.8 F2100
M204 S800
;TYPE:Solid infill
;WIDTH:0.420134
G1 F1200
G1 X228.222 Y21.699 E.01867
G1 X227.831 Y21.841 E.01305
G1 X228.473 Y22.483 E.02848
G1 X228.473 Y23.017 E.01675
G1 X227.44 Y21.984 E.04582
G1 X227.049 Y22.126 E.01305
G1 X228.473 Y23.55 E.06317
G1 X228.473 Y24.084 E.01675
G1 X226.658 Y22.269 E.08051
G1 X226.267 Y22.411 E.01305
G1 X228.473 Y24.617 E.09785
G1 X228.473 Y25.151 E.01675
G1 X225.876 Y22.554 E.1152
G1 X225.485 Y22.696 E.01305
G1 X228.473 Y25.684 E.13254
G1 X228.473 Y26.218 E.01675
G1 X225.094 Y22.838 E.14991
G1 X224.703 Y22.981 E.01306
G1 X228.473 Y26.751 E.16723
G1 X228.473 Y27.285 E.01675
G1 X224.312 Y23.123 E.18459
G1 X223.921 Y23.266 E.01306
G1 X228.473 Y27.818 E.20192
G1 X228.473 Y28.352 E.01675
G1 X223.53 Y23.408 E.21928
G1 X223.138 Y23.551 E.01309
G1 X228.473 Y28.885 E.23662
G1 X228.473 Y29.418 E.01672
G1 X222.747 Y23.693 E.25397
G1 X222.356 Y23.835 E.01305
G1 X228.473 Y29.952 E.27133
G1 X228.473 Y30.485 E.01672
M73 P0 R153
G1 X221.965 Y23.978 E.28866
G1 X221.574 Y24.12 E.01305
G1 X228.473 Y31.019 E.30602
G1 X228.473 Y31.552 E.01672
G1 X221.183 Y24.263 E.32334
G1 X220.792 Y24.405 E.01305
G1 X228.473 Y32.086 E.34071
G1 X228.473 Y32.619 E.01672
G1 X220.401 Y24.548 E.35803
G1 X220.01 Y24.69 E.01305
G1 X228.473 Y33.153 E.3754
G1 X228.473 Y33.686 E.01672
G1 X219.619 Y24.833 E.39272
G1 X219.228 Y24.975 E.01305
G1 X228.473 Y34.22 E.41008
G1 X228.473 Y34.753 E.01672
G1 X218.837 Y25.117 E.42743
G1 X218.446 Y25.26 E.01306
G1 X228.473 Y35.287 E.44477
G1 X228.473 Y35.82 E.01672
G1 X218.055 Y25.402 E.46212
G1 X217.664 Y25.545 E.01306
G1 X228.473 Y36.353 E.47944
G1 X228.473 Y36.887 E.01675
G1 X217.273 Y25.687 E.4968
G1 X216.882 Y25.83 E.01306
G1 X228.473 Y37.42 E.51413
G1 X228.473 Y37.954 E.01675
G1 X216.491 Y25.972 E.53149
G1 X216.1 Y26.114 E.01305
G1 X228.473 Y38.487 E.54884
G1 X228.473 Y39.021 E.01675
G1 X215.709 Y26.257 E.56618
G1 X215.318 Y26.399 E.01305
G1 X228.473 Y39.554 E.58352
G1 X228.473 Y40.088 E.01675
G1 X214.927 Y26.542 E.60087
G1 X214.536 Y26.684 E.01305
G1 X228.473 Y40.621 E.61821
G1 X228.473 Y41.155 E.01675
G1 X214.145 Y26.827 E.63555
G1 X213.754 Y26.969 E.01305
G1 X228.473 Y41.688 E.6529
G1 X228.473 Y42.222 E.01675
G1 X213.363 Y27.111 E.67026
G1 X212.972 Y27.254 E.01306
M73 Q1 S154
G1 X228.473 Y42.755 E.68759
G1 X228.473 Y43.288 E.01672
M73 P1 R153
G1 X212.581 Y27.396 E.70493
G1 X212.19 Y27.539 E.01306
G1 X228.473 Y43.822 E.72227
G1 X228.473 Y44.355 E.01672
G1 X211.799 Y27.681 E.73962
G1 X211.659 Y27.732 E.00467
G1 X211.7 Y28.116 E.01211
G1 X228.473 Y44.889 E.74401
G1 X228.473 Y45.422 E.01672
G1 X211.762 Y28.712 E.74124
G1 X211.825 Y29.308 E.0188
G1 X228.473 Y45.956 E.73846
G1 X228.473 Y46.489 E.01672
G1 X211.888 Y29.904 E.73567
G1 X211.95 Y30.5 E.01879
M73 Q1 S153
G1 X228.473 Y47.023 E.73292
G1 X228.473 Y47.556 E.01672
G1 X212.013 Y31.096 E.73012
G1 X212.076 Y31.692 E.0188
G1 X228.473 Y48.09 E.72735
G1 X228.473 Y48.623 E.01672
G1 X212.138 Y32.289 E.72456
G1 X212.201 Y32.885 E.0188
G1 X228.473 Y49.157 E.72178
G1 X228.473 Y49.69 E.01672
G1 X212.264 Y33.481 E.71899
G1 X212.326 Y34.077 E.01879
G1 X228.473 Y50.223 E.71622
G1 X228.473 Y50.757 E.01675
G1 X212.389 Y34.673 E.71345
G1 X212.452 Y35.269 E.0188
G1 X228.473 Y51.29 E.71065
G1 X228.473 Y51.824 E.01675
G1 X212.514 Y35.865 E.7079
G1 X212.577 Y36.461 E.0188
G1 X228.473 Y52.357 E.70511
G1 X228.473 Y52.891 E.01675
G1 X212.64 Y37.057 E.70233
G1 X212.702 Y37.654 E.01883
G1 X228.473 Y53.424 E.69954
G1 X228.473 Y53.958 E.01675
G1 X212.765 Y38.25 E.69677
G1 X212.827 Y38.846 E.01879
G1 X228.473 Y54.491 E.69399
G1 X228.473 Y55.025 E.01675
G1 X212.89 Y39.442 E.69122
G1 X212.953 Y40.038 E.0188
G1 X228.473 Y55.558 E.68843
G1 X228.473 Y56.092 E.01675
G1 X213.015 Y40.634 E.68568
G1 X213.078 Y41.23 E.0188
G1 X228.473 Y56.625 E.68288
G1 X228.473 Y57.158 E.01672
G1 X213.141 Y41.826 E.68009
G1 X213.203 Y42.422 E.01879
G1 X228.473 Y57.692 E.67734
G1 X228.473 Y58.225 E.01672
G1 X213.266 Y43.019 E.67452
G1 X213.329 Y43.615 E.0188
G1 X228.473 Y58.759 E.67175
G1 X228.473 Y59.292 E.01672
G1 X213.391 Y44.211 E.66898
G1 X213.454 Y44.807 E.0188
G1 X228.473 Y59.826 E.6662
G1 X228.473 Y60.359 E.01672
G1 X213.517 Y45.403 E.66341
G1 X213.579 Y45.999 E.01879
G1 X228.473 Y60.893 E.66066
G1 X228.473 Y61.426 E.01672
G1 X213.642 Y46.595 E.65787
G1 X213.705 Y47.191 E.0188
M73 P1 R152
G1 X228.473 Y61.96 E.65509
G1 X228.473 Y62.493 E.01672
G1 X213.767 Y47.787 E.65232
G1 X213.83 Y48.384 E.01883
G1 X228.473 Y63.027 E.64953
G1 X228.473 Y63.56 E.01672
G1 X213.893 Y48.98 E.64673
G1 X213.955 Y49.576 E.01879
G1 X228.473 Y64.093 E.64396
G1 X228.473 Y64.627 E.01675
G1 X214.018 Y50.172 E.64119
G1 X214.081 Y50.768 E.0188
G1 X228.473 Y65.16 E.63839
G1 X228.473 Y65.694 E.01675
G1 X214.143 Y51.364 E.63564
G1 X214.206 Y51.96 E.0188
G1 X228.473 Y66.227 E.63285
G1 X228.473 Y66.761 E.01675
G1 X214.269 Y52.556 E.63008
G1 X214.331 Y53.153 E.01883
G1 X228.473 Y67.294 E.62728
G1 X228.473 Y67.828 E.01675
G1 X214.394 Y53.749 E.62451
G1 X214.456 Y54.345 E.01879
G1 X228.473 Y68.361 E.62174
G1 X228.473 Y68.895 E.01675
G1 X214.519 Y54.941 E.61896
G1 X214.582 Y55.537 E.0188
G1 X228.473 Y69.428 E.61617
G1 X228.473 Y69.962 E.01675
G1 X214.644 Y56.133 E.61342
G1 X214.707 Y56.729 E.0188
G1 X228.473 Y70.495 E.61063
G1 X228.473 Y71.028 E.01672
G1 X214.77 Y57.325 E.60783
G1 X214.832 Y57.921 E.01879
G1 X228.473 Y71.562 E.60508
G1 X228.473 Y72.095 E.01672
G1 X214.895 Y58.518 E.60226
G1 X214.958 Y59.114 E.0188
G1 X228.473 Y72.629 E.59949
G1 X228.473 Y73.162 E.01672
G1 X215.02 Y59.71 E.59672
G1 X215.083 Y60.306 E.0188
G1 X228.473 Y73.696 E.59395
G1 X228.473 Y74.229 E.01672
G1 X215.146 Y60.902 E.59115
G1 X215.208 Y61.498 E.01879
G1 X228.473 Y74.763 E.5884
G1 X228.473 Y75.296 E.01672
G1 X215.271 Y62.094 E.58561
G1 X215.334 Y62.69 E.0188
G1 X228.473 Y75.83 E.58284
G1 X228.473 Y76.363 E.01672
M73 Q1 S152
G1 X215.396 Y63.286 E.58006
G1 X215.459 Y63.883 E.01883
G1 X228.473 Y76.897 E.57727
G1 X228.473 Y77.43 E.01672
G1 X215.522 Y64.479 E.57447
G1 X215.584 Y65.075 E.01879
G1 X228.473 Y77.963 E.5717
G1 X228.473 Y78.497 E.01675
G1 X215.647 Y65.671 E.56893
G1 X215.71 Y66.267 E.0188
G1 X228.473 Y79.03 E.56613
G1 X228.473 Y79.564 E.01675
G1 X215.772 Y66.863 E.56338
G1 X215.835 Y67.459 E.0188
G1 X228.473 Y80.097 E.56059
G1 X228.473 Y80.631 E.01675
G1 X215.898 Y68.055 E.55782
G1 X215.96 Y68.652 E.01883
G1 X228.473 Y81.164 E.55502
G1 X228.473 Y81.698 E.01675
G1 X216.023 Y69.248 E.55225
G1 X216.085 Y69.844 E.01879
G1 X228.473 Y82.231 E.54948
G1 X228.473 Y82.765 E.01675
G1 X216.148 Y70.44 E.54671
G1 X216.211 Y71.036 E.0188
G1 X228.473 Y83.298 E.54391
G1 X228.473 Y83.832 E.01675
G1 X216.273 Y71.632 E.54116
G1 X216.336 Y72.228 E.0188
G1 X228.473 Y84.365 E.53837
G1 X228.473 Y84.898 E.01672
G1 X216.399 Y72.824 E.53557
G1 X216.461 Y73.42 E.01879
G1 X228.473 Y85.432 E.53282
G1 X228.473 Y85.965 E.01672
G1 X216.524 Y74.017 E.53001
G1 X216.587 Y74.613 E.0188
G1 X228.473 Y86.499 E.52723
G1 X228.473 Y87.032 E.01672
G1 X216.649 Y75.209 E.52446
G1 X216.712 Y75.805 E.0188
G1 X228.473 Y87.566 E.52169
G1 X228.473 Y88.099 E.01672
G1 X216.775 Y76.401 E.51889
G1 X216.837 Y76.997 E.01879
G1 X228.473 Y88.633 E.51614
G1 X228.473 Y89.166 E.01672
G1 X216.9 Y77.593 E.51335
G1 X216.963 Y78.189 E.0188
G1 X228.473 Y89.7 E.51058
G1 X228.473 Y90.233 E.01672
M73 Q2 S152
G1 X217.025 Y78.785 E.5078
G1 X217.088 Y79.382 E.01883
M73 P2 R152
G1 X228.473 Y90.766 E.50499
G1 X228.473 Y91.3 E.01675
G1 X217.151 Y79.978 E.50222
G1 X217.213 Y80.574 E.01879
G1 X228.473 Y91.833 E.49944
G1 X228.473 Y92.367 E.01675
G1 X217.276 Y81.17 E.49667
G1 X217.339 Y81.766 E.0188
G1 X228.473 Y92.9 E.49388
G1 X228.473 Y93.434 E.01675
G1 X217.401 Y82.362 E.49113
G1 X217.464 Y82.958 E.0188
G1 X228.473 Y93.967 E.48833
G1 X228.473 Y94.501 E.01675
G1 X217.527 Y83.554 E.48556
G1 X217.589 Y84.15 E.01879
G1 X228.473 Y95.034 E.48279
G1 X228.473 Y95.568 E.01675
M73 P2 R151
G1 X217.652 Y84.747 E.47999
G1 X217.714 Y85.343 E.01879
G1 X228.473 Y96.101 E.47722
G1 X228.473 Y96.635 E.01675
G1 X217.777 Y85.939 E.47445
G1 X217.84 Y86.535 E.0188
G1 X228.473 Y97.168 E.47165
G1 X228.473 Y97.701 E.01672
G1 X217.902 Y87.131 E.46888
G1 X217.965 Y87.727 E.0188
G1 X228.473 Y98.235 E.46611
G1 X228.473 Y98.768 E.01672
G1 X218.028 Y88.323 E.46331
G1 X218.09 Y88.919 E.01879
G1 X228.473 Y99.302 E.46056
G1 X228.473 Y99.835 E.01672
G1 X218.153 Y89.516 E.45775
G1 X218.216 Y90.112 E.0188
G1 X228.473 Y100.369 E.45497
G1 X228.473 Y100.902 E.01672
G1 X218.278 Y90.708 E.4522
G1 X218.341 Y91.304 E.0188
G1 X228.473 Y101.436 E.44943
G1 X228.473 Y101.969 E.01672
G1 X218.404 Y91.9 E.44664
G1 X218.466 Y92.496 E.01879
G1 X228.473 Y102.503 E.44389
G1 X228.473 Y103.036 E.01672
G1 X218.529 Y93.092 E.44109
G1 X218.592 Y93.688 E.0188
G1 X228.473 Y103.57 E.43832
G1 X228.473 Y104.103 E.01672
G1 X218.654 Y94.284 E.43555
G1 X218.717 Y94.881 E.01883
G1 X228.473 Y104.636 E.43273
G1 X228.473 Y105.17 E.01675
G1 X218.78 Y95.477 E.42996
G1 X218.842 Y96.073 E.01879
G1 X228.473 Y105.703 E.42718
G1 X228.473 Y106.237 E.01675
G1 X218.905 Y96.669 E.42441
G1 X218.968 Y97.265 E.0188
G1 X228.473 Y106.77 E.42162
G1 X228.473 Y107.304 E.01675
G1 X219.03 Y97.861 E.41887
G1 X219.093 Y98.457 E.0188
G1 X228.473 Y107.837 E.41607
G1 X228.473 Y108.371 E.01675
G1 X219.156 Y99.053 E.4133
G1 X219.218 Y99.649 E.01879
G1 X228.473 Y108.904 E.41053
G1 X228.473 Y109.438 E.01675
G1 X219.281 Y100.246 E.40773
G1 X219.343 Y100.842 E.01879
G1 X228.473 Y109.971 E.40496
G1 X228.473 Y110.505 E.01675
G1 X219.406 Y101.438 E.40219
G1 X219.469 Y102.034 E.0188
G1 X228.473 Y111.038 E.39939
G1 X228.473 Y111.571 E.01672
G1 X219.531 Y102.63 E.39662
G1 X219.594 Y103.226 E.0188
G1 X228.473 Y112.105 E.39385
G1 X228.473 Y112.638 E.01672
G1 X219.657 Y103.822 E.39106
G1 X219.719 Y104.418 E.01879
G1 X228.473 Y113.172 E.38831
G1 X228.473 Y113.705 E.01672
G1 X219.782 Y105.015 E.38549
G1 X219.845 Y105.611 E.0188
G1 X228.473 Y114.239 E.38272
G1 X228.473 Y114.772 E.01672
G1 X219.907 Y106.207 E.37994
